X: 162
T:Bide Ye Yet
S:Kerr's Merry Melodies book 1
N:originally known as "Hit Her on the Bum"
M:6/8
L:1/8
Q:3/8=116
K:EMin
% minor/phrygian hexatonic
d|BAB G2A|Bcd cBA|BAB G2A|B2e e2d|
  BAB G2A|Bcd cBA|BAB G2A|B2e e2:|
d|B2g g2d|B2d d2A|B2g gab|B2e e2d|
  B2g gab|Bcd cBA|BAG G2A|B2e e2:|

On the pipes minor/phrygian hexatonic can be the B-mode with the C-gap
hexatonic pitch set; the other way, as the F-mode on the G-gap set,
never occurs.

